packages/icons/svg/Outline/facebook.svg

<svg fill="none" height="24" viewBox="0 0 24 24" width="24" xmlns="http://www.w3.org/2000/svg"><path clip-rule="evenodd" d="m10 20.0001h2v-6.2c0-.553.447-1 1-1h2.24l.445-1.6h-2.685c-.553 0-1-.447-1-1v-2.70004c0-1.048.897-1.9 2-1.9h2v-1.59999h-2c-2.206 0-4 1.56999-4 3.49999v2.70004c0 .553-.44698 1-.99998 1h-2v1.6h2c.553 0 .99998.447.99998 1zm3 1.9999h-4c-.553 0-1-.447-1-1v-6.2h-2c-.553 0-1-.447-1-1v-3.6c0-.553.447-1 1-1h2v-1.7c0-3.032 2.691-5.5 6-5.5h3c.553 0 1 .447 1 1v3.6c0 .552-.447 1-1 1h-3v1.6h3c.312 0 .607.147.796.395.189.249.251.572.168.873l-1 3.599c-.12.433-.515.733-.964.733h-2v6.2c0 .553-.447 1-1 1z" fill="#6b7280" fill-rule="evenodd"/></svg>

<svg width="24" height="24" viewBox="0 0 24 24" fill="none" xmlns="http://www.w3.org/2000/svg">
<g id="Icon/Outline/facebook">
<path id="Mask" fill-rule="evenodd" clip-rule="evenodd" d="M10 20H12V13.8C12 13.247 12.447 12.8 13 12.8H15.24L15.685 11.2H13C12.447 11.2 12 10.753 12 10.2V7.5C12 6.452 12.897 5.6 14 5.6H16V4H14C11.794 4 10 5.57 10 7.5V10.2C10 10.753 9.553 11.2 9 11.2H7V12.8H9C9.553 12.8 10 13.247 10 13.8V20ZM13 22H9C8.447 22 8 21.553 8 21V14.8H6C5.447 14.8 5 14.353 5 13.8V10.2C5 9.647 5.447 9.2 6 9.2H8V7.5C8 4.468 10.691 2 14 2H17C17.553 2 18 2.447 18 3V6.6C18 7.152 17.553 7.6 17 7.6H14V9.2H17C17.312 9.2 17.607 9.347 17.796 9.595C17.985 9.844 18.047 10.167 17.964 10.468L16.964 14.067C16.844 14.5 16.449 14.8 16 14.8H14V21C14 21.553 13.553 22 13 22Z" fill="#000000"/>
</g>
</svg>
